media/images/profile.svg

<svg width="19" height="24" viewBox="0 0 19 24" fill="none" xmlns="http://www.w3.org/2000/svg">
<path d="M17.1609 20.7H17.1978V19.7C17.1978 18.7486 16.6656 17.903 15.8121 17.4796L12.2643 15.7196C11.6395 15.4096 11.2478 14.7886 11.2478 14.09V12.5867V12.5329L11.2927 12.5033L11.387 12.4409C11.4621 12.3308 11.5687 12.1898 11.673 12.0518L11.6746 12.0497L11.7543 12.11M17.1609 20.7L7.28527 12.4124L7.28523 12.4123L7.28485 12.4118L7.28311 12.4098L7.27583 12.4009C7.26933 12.3929 7.2596 12.3808 7.24701 12.3647C7.22182 12.3326 7.1852 12.2848 7.14009 12.2226C7.04985 12.0981 6.92577 11.9163 6.79134 11.688C6.52217 11.2309 6.21315 10.59 6.04981 9.85173L6.04985 9.85172L6.04914 9.8489L6.01219 9.70223L6.00272 9.66465L5.97039 9.64326L5.85952 9.56993C5.66691 9.44253 5.57174 9.25449 5.57174 9.03V7.56333C5.57174 7.37018 5.63445 7.21719 5.7926 7.09166L5.79299 7.09214L5.80087 7.08432L5.91174 6.97432L5.9413 6.94499V6.90333V4.66667V4.63H5.94189L5.94074 4.61937L5.94074 4.61936L5.94073 4.61933L5.94073 4.61926L5.94071 4.61911L5.94055 4.6175L5.93989 4.61C5.93932 4.60314 5.93853 4.59261 5.93776 4.57872C5.9362 4.55093 5.93467 4.50972 5.93495 4.45751C5.93551 4.353 5.94328 4.20492 5.97226 4.0324C6.03031 3.68683 6.17264 3.24763 6.50804 2.86232L6.50885 2.86138C7.07283 2.1969 8.07214 1.83333 9.5 1.83333C10.9254 1.83333 11.9281 2.1958 12.5304 2.82733C12.8647 3.21224 13.0067 3.65067 13.0647 3.99573C13.0937 4.16825 13.1015 4.31633 13.102 4.42084C13.1023 4.47305 13.1008 4.51426 13.0992 4.54205C13.0984 4.55594 13.0976 4.56647 13.0971 4.57333L13.0964 4.58083L13.0962 4.58245L13.0962 4.5826L13.0957 4.58253V4.59333V6.94V6.98165L13.1252 7.01099L13.2361 7.12099C13.373 7.25685 13.4652 7.41617 13.4652 7.6V9.06667C13.4652 9.34673 13.2777 9.57111 13.013 9.66961L13.0129 9.66959L13.0109 9.67039L12.8262 9.74372L12.7863 9.75953L12.7703 9.79928L12.6964 9.98261L12.6962 9.98254L12.6943 9.98815C12.4381 10.7509 12.1095 11.4383 11.6729 12.052L11.7543 12.11M17.1609 20.7V20.8C17.1609 20.8203 17.1454 20.8661 17.0671 20.9357C16.9922 21.0023 16.8748 21.0769 16.7116 21.1557C16.3859 21.3128 15.8948 21.478 15.2428 21.6284C13.9397 21.9288 12.0073 22.1667 9.5 22.1667C6.99274 22.1667 5.06029 21.9288 3.75725 21.6284C3.10515 21.478 2.61412 21.3128 2.28842 21.1557C2.12515 21.0769 2.00782 21.0023 1.93289 20.9357C1.85462 20.8661 1.83913 20.8203 1.83913 20.8V19.6267C1.83913 18.7118 2.33486 17.901 3.1549 17.4409C3.15508 17.4408 3.15526 17.4407 3.15543 17.4406L6.44242 15.6451L17.1609 20.7ZM11.7543 12.11C12.1978 11.4867 12.5304 10.79 12.7891 10.02L11.4587 12.5133C11.5326 12.4033 11.6435 12.2567 11.7543 12.11ZM5.98574 14.7685L5.9856 14.7682L5.97815 14.7722L2.68902 16.5689L2.689 16.5689L2.68668 16.5702C1.58513 17.2109 0.9 18.3799 0.9 19.6267V20.8C0.9 21.2917 1.29511 21.6698 1.86713 21.96C2.4455 22.2533 3.24164 22.4766 4.12258 22.6445C5.8863 22.9806 8.01806 23.1 9.5 23.1C10.9819 23.1 13.1137 22.9806 14.8774 22.6445C15.7584 22.4766 16.5545 22.2533 17.1329 21.96C17.7049 21.6698 18.1 21.2917 18.1 20.8V19.7C18.1 18.3794 17.3768 17.2073 16.196 16.6401C16.1958 16.64 16.1956 16.6399 16.1955 16.6399L12.6508 14.8814C12.346 14.7126 12.15 14.4141 12.15 14.09V12.8747C12.1699 12.847 12.192 12.8192 12.2163 12.7885C12.2296 12.7717 12.2436 12.754 12.2584 12.735C12.3047 12.6752 12.3543 12.6069 12.3951 12.5274C12.8336 11.8741 13.2005 11.1847 13.4958 10.4247C14.0291 10.1794 14.3674 9.6401 14.3674 9.03V7.56333C14.3674 7.18274 14.2193 6.84113 13.9978 6.57341V4.6747C14.0377 4.41941 14.1007 3.22729 13.1974 2.21796C12.4677 1.34275 11.1758 0.9 9.5 0.9C7.82259 0.9 6.53231 1.34352 5.76647 2.217C4.91651 3.16604 4.954 4.31124 4.96385 4.61221C4.96462 4.63564 4.96522 4.65396 4.96522 4.66667V6.57353C4.74295 6.84461 4.59565 7.21933 4.59565 7.56333V9.03C4.59565 9.48889 4.81977 9.946 5.16143 10.2241C5.49147 11.5059 6.16109 12.5098 6.44348 12.8438V14.0167C6.44348 14.35 6.27666 14.6402 5.98574 14.7685Z" fill="white" stroke="white" stroke-width="0.2"/>
</svg>

<svg width="19" height="24" fill="none" xmlns="http://www.w3.org/2000/svg"><path d="M17.16 20.7h.038v-1c0-.951-.532-1.797-1.386-2.22l-3.548-1.76a1.81 1.81 0 0 1-1.016-1.63v-1.557l.045-.03.094-.062c.075-.11.182-.251.286-.39l.002-.001.08.06m5.406 8.59-9.876-8.288-.002-.002-.007-.01a6.78 6.78 0 0 1-.484-.713 6.42 6.42 0 0 1-.742-1.835v-.003l-.038-.147-.01-.037-.032-.022-.11-.073a.62.62 0 0 1-.288-.54V7.563c0-.193.062-.346.22-.471h.001l.008-.008.11-.11.03-.029V4.617L5.94 4.61l-.002-.031a2.677 2.677 0 0 1 .035-.546c.057-.346.2-.785.535-1.17V2.86c.565-.664 1.564-1.028 2.992-1.028 1.425 0 2.428.363 3.03.994.335.385.477.824.535 1.169a2.667 2.667 0 0 1 .034.546l-.002.031v.01h-.001v2.4l.03.029.11.11c.137.136.23.295.23.479v1.467c0 .28-.188.504-.453.603h-.002l-.185.074-.04.016-.016.04-.074.183-.002.005c-.256.763-.585 1.45-1.021 2.064l.081.058m5.407 8.59v.1c0 .02-.016.066-.094.136a1.587 1.587 0 0 1-.355.22c-.326.157-.817.322-1.47.472-1.302.3-3.235.539-5.742.539s-4.44-.238-5.743-.539c-.652-.15-1.143-.315-1.469-.472a1.586 1.586 0 0 1-.355-.22c-.078-.07-.094-.116-.094-.136v-1.173c0-.915.496-1.726 1.316-2.186l3.287-1.796L17.161 20.7zm-5.407-8.59c.444-.623.776-1.32 1.035-2.09l-1.33 2.493c.074-.11.184-.256.295-.403zm-5.768 2.659-.008.003L2.69 16.57l-.002.001C1.585 17.21.9 18.38.9 19.627V20.8c0 .492.395.87.967 1.16.579.293 1.375.517 2.256.684 1.763.337 3.895.456 5.377.456 1.482 0 3.614-.12 5.377-.456.881-.167 1.678-.39 2.256-.684.572-.29.967-.668.967-1.16v-1.1c0-1.32-.723-2.493-1.904-3.06l-3.546-1.76c-.305-.168-.501-.467-.501-.791v-1.215a8.495 8.495 0 0 0 .108-.14c.047-.06.096-.128.137-.208a10.68 10.68 0 0 0 1.1-2.102c.534-.246.872-.785.872-1.395V7.563c0-.38-.148-.722-.37-.99V4.675c.04-.256.104-1.448-.8-2.457C12.467 1.343 11.176.9 9.5.9c-1.677 0-2.968.444-3.734 1.317-.85.949-.812 2.094-.802 2.395l.001.055v1.907c-.222.27-.37.645-.37.99V9.03c0 .459.225.916.566 1.194.33 1.282 1 2.286 1.282 2.62v1.173c0 .333-.166.623-.457.752z" fill="#fff" stroke="#fff" stroke-width=".2"/></svg>
